_inc/images/systems/logos/dataeast.svg

<svg viewBox="0 0 3840 1398.6" xmlns="http://www.w3.org/2000/svg">
    <path class="st5518" d="M1634.8 0h319c175.4 0 253.5 65.5 253.5 244.3V376c0 172.1-55.4 253.5-230.8 253.5h-341.6V0Zm167.9 483.5h146.9c62.1 0 84.8-41.1 84.8-107.4V244.3c0-81.4-26-98.2-84.8-98.2h-146.9v337.4Zm603.4 37.7L2375 629.5h-174.6L2389.3 0h255.2l191.4 629.5h-171.2L2632 521.2h-225.9Zm114.2-395.3h-1.7l-76.4 272.8h156.1l-78-272.8Zm580.1 503.6h-167.9V146h-161.2V0H3270v146h-169.6v483.5Zm309.8-108.3-31.1 108.3h-174.6L3393.5 0h255.2L3840 629.5h-171.2L3636 521.2h-225.8Zm114.2-395.3h-1.7l-76.4 272.8h156.1l-78-272.8Zm-1721.6 889.7h268.6v116.7h-268.6v122.5h292.1v137.7h-460V763H2089v137.7h-286.2v114.9Zm534.9 269.7-31.1 108.3H2132l188.9-629.5h255.2l191.4 629.5h-171.2l-32.7-108.3h-225.9ZM2451.9 890h-1.7l-76.4 272.8h156.1l-78-272.8Zm634.5 120.9c186.3 13.4 232.5 36.9 232.5 181.3 0 104.1 4.2 206.5-272.8 206.5-160.3 0-266.9-3.4-266.9-209.8h161.2c0 65.5 23.5 72.2 105.8 72.2 78.9 0 104.9-5 104.9-57.9 0-54.6-9.2-53.7-88.1-58.8l-36.9-2.5c-155.3-10.9-245.9-10.1-245.9-190.5S2881.6 759 3046.1 759c137.7 0 255.2 2.5 255.2 176.3v26h-161.2c0-64.6-26.9-64.6-94-64.6-90.7 0-98.2 18.5-98.2 53.7 0 50.4 24.3 52 68.8 55.4l69.7 5.1Zm584 382.7h-167.9V910.1h-161.2v-146H3840v146h-169.6v483.5ZM41.8 252.8c-14.1 0-28.1.7-41.8 2v889c13.8 1.3 27.7 2 41.8 2 246.2 0 446.5-200.3 446.5-446.5S288.1 252.8 41.8 252.8Z" style="fill:#fff"/>
    <path class="st5518" d="M41.8 0C27.8 0 13.9.5 0 1.4v185.9c13.8-1.1 27.7-1.8 41.8-1.8 283.4 0 513.9 230.5 513.9 513.9s-230.5 513.9-513.9 513.9c-14.1 0-28-.7-41.8-1.8v185.9c13.9.8 27.8 1.4 41.8 1.4 386.2 0 699.3-313.1 699.3-699.3C741.1 313.3 428.1 0 41.8 0Z" style="fill:#fff"/>
    <path class="st5518" d="M1425.4 1398.6c14.1 0 28-.5 41.8-1.4v-185.9c-13.8 1.1-27.7 1.8-41.8 1.8-283.4 0-513.9-230.5-513.9-513.9s230.5-513.9 513.9-513.9c14.1 0 28 .7 41.8 1.8V1.4c-13.9-.8-27.8-1.4-41.8-1.4-386.2 0-699.3 313.1-699.3 699.3 0 386.2 313.1 699.3 699.3 699.3Z" style="fill:#fff"/>
    <path class="st5518" d="M1467.2 665.8v-411c-13.8-1.3-27.7-2-41.8-2-234.9 0-427.9 182.4-445.1 413h486.9Zm-486.9 67c17.2 230.6 210.2 413 445.1 413 14.1 0 28.1-.7 41.8-2v-411H980.3Z" style="fill:#fff"/>
</svg>

<?xml version="1.0" encoding="utf-8"?>
<svg version="1.1" viewBox="0 0 3840 1398.6" xmlns="http://www.w3.org/2000/svg">
  <path class="st5518" d="M 1634.8 0 L 1953.8 0 C 2129.2 0 2207.3 65.5 2207.3 244.3 L 2207.3 376 C 2207.3 548.1 2151.9 629.5 1976.5 629.5 L 1634.9 629.5 L 1634.9 0 Z M 1802.7 483.5 L 1949.6 483.5 C 2011.7 483.5 2034.4 442.4 2034.4 376.1 L 2034.4 244.3 C 2034.4 162.9 2008.4 146.1 1949.6 146.1 L 1802.7 146.1 L 1802.7 483.5 Z" style="fill: rgb(255, 255, 255);"/>
  <path class="st5518" d="M 2406.1 521.2 L 2375 629.5 L 2200.4 629.5 L 2389.3 0 L 2644.5 0 L 2835.9 629.5 L 2664.7 629.5 L 2632 521.2 L 2406.1 521.2 Z M 2520.3 125.9 L 2518.6 125.9 L 2442.2 398.7 L 2598.3 398.7 L 2520.3 125.9 Z" style="fill: rgb(255, 255, 255);"/>
  <path class="st5518" d="M 3100.4 629.5 L 2932.5 629.5 L 2932.5 146 L 2771.3 146 L 2771.3 0 L 3270 0 L 3270 146 L 3100.4 146 L 3100.4 629.5 Z" style="fill: rgb(255, 255, 255);"/>
  <path class="st5518" d="M 3410.2 521.2 L 3379.1 629.5 L 3204.5 629.5 L 3393.5 0 L 3648.7 0 L 3840 629.5 L 3668.8 629.5 L 3636 521.2 L 3410.2 521.2 Z M 3524.4 125.9 L 3522.7 125.9 L 3446.3 398.7 L 3602.4 398.7 L 3524.4 125.9 Z" style="fill: rgb(255, 255, 255);"/>
  <path class="st5518" d="M 1802.8 1015.6 L 2071.4 1015.6 L 2071.4 1132.3 L 1802.8 1132.3 L 1802.8 1254.8 L 2094.9 1254.8 L 2094.9 1392.5 L 1634.9 1392.5 L 1634.9 763 L 2089 763 L 2089 900.7 L 1802.8 900.7 L 1802.8 1015.6 Z" style="fill: rgb(255, 255, 255);"/>
  <path class="st5518" d="M 2337.7 1285.3 L 2306.6 1393.6 L 2132 1393.6 L 2320.9 764.1 L 2576.1 764.1 L 2767.5 1393.6 L 2596.3 1393.6 L 2563.6 1285.3 L 2337.7 1285.3 Z M 2451.9 890 L 2450.2 890 L 2373.8 1162.8 L 2529.9 1162.8 L 2451.9 890 Z" style="fill: rgb(255, 255, 255);"/>
  <path class="st5518" d="M 3086.4 1010.9 C 3272.7 1024.3 3318.9 1047.8 3318.9 1192.2 C 3318.9 1296.3 3323.1 1398.7 3046.1 1398.7 C 2885.8 1398.7 2779.2 1395.3 2779.2 1188.9 L 2940.4 1188.9 C 2940.4 1254.4 2963.9 1261.1 3046.2 1261.1 C 3125.1 1261.1 3151.1 1256.1 3151.1 1203.2 C 3151.1 1148.6 3141.9 1149.5 3063 1144.4 L 3026.1 1141.9 C 2870.8 1131 2780.2 1131.8 2780.2 951.4 C 2780.2 771 2881.6 759 3046.1 759 C 3183.8 759 3301.3 761.5 3301.3 935.3 L 3301.3 961.3 L 3140.1 961.3 C 3140.1 896.7 3113.2 896.7 3046.1 896.7 C 2955.4 896.7 2947.9 915.2 2947.9 950.4 C 2947.9 1000.8 2972.2 1002.4 3016.7 1005.8 L 3086.4 1010.9 Z" style="fill: rgb(255, 255, 255);"/>
  <path class="st5518" d="M 3670.4 1393.6 L 3502.5 1393.6 L 3502.5 910.1 L 3341.3 910.1 L 3341.3 764.1 L 3840 764.1 L 3840 910.1 L 3670.4 910.1 L 3670.4 1393.6 Z" style="fill: rgb(255, 255, 255);"/>
  <path class="st5518" d="M 41.8 252.8 C 27.7 252.8 13.7 253.5 0 254.8 L 0 1143.8 C 13.8 1145.1 27.7 1145.8 41.8 1145.8 C 288 1145.8 488.3 945.5 488.3 699.3 C 488.3 453.1 288.1 252.8 41.8 252.8 Z" style="fill: rgb(255, 255, 255);"/>
  <path class="st5518" d="M 41.8 0 C 27.8 0 13.9 0.5 0 1.4 L 0 187.3 C 13.8 186.2 27.7 185.5 41.8 185.5 C 325.2 185.5 555.7 416 555.7 699.4 C 555.7 982.8 325.2 1213.3 41.8 1213.3 C 27.7 1213.3 13.8 1212.6 0 1211.5 L 0 1397.4 C 13.9 1398.2 27.8 1398.8 41.8 1398.8 C 428 1398.8 741.1 1085.7 741.1 699.5 C 741.1 313.3 428.1 0 41.8 0 Z" style="fill: rgb(255, 255, 255);"/>
  <path class="st5518" d="M 1425.4 1398.6 C 1439.5 1398.6 1453.4 1398.1 1467.2 1397.2 L 1467.2 1211.3 C 1453.4 1212.4 1439.5 1213.1 1425.4 1213.1 C 1142 1213.1 911.5 982.6 911.5 699.2 C 911.5 415.8 1142 185.3 1425.4 185.3 C 1439.5 185.3 1453.4 186 1467.2 187.1 L 1467.2 1.4 C 1453.3 0.6 1439.4 0 1425.4 0 C 1039.2 0 726.1 313.1 726.1 699.3 C 726.1 1085.5 1039.2 1398.6 1425.4 1398.6 Z" style="fill: rgb(255, 255, 255);"/>
  <path class="st5518" d="M 1467.2 665.8 L 1467.2 254.8 C 1453.4 253.5 1439.5 252.8 1425.4 252.8 C 1190.5 252.8 997.5 435.2 980.3 665.8 L 1467.2 665.8 Z" style="fill: rgb(255, 255, 255);"/>
  <path class="st5518" d="M 980.3 732.8 C 997.5 963.4 1190.5 1145.8 1425.4 1145.8 C 1439.5 1145.8 1453.5 1145.1 1467.2 1143.8 L 1467.2 732.8 L 980.3 732.8 Z" style="fill: rgb(255, 255, 255);"/>
</svg>
